X: 6331
T: Carter Maschke's
R: reel
M: 4/4
K: Adorian
B|:AGEG A2Bd|edBd edBA|GEDE GABd|g2fa gedB|
AGEG A2Bd|edBd edBA|G2Bd eaaf|gedB A3B:|
|:Aa2a abag|edef g/f/e dc|BGFG EGDE|GABd eBdB|
[1 Aa2a abag|edef ~g2fg|afge fded|BgBG A3B:|
[2 ABAG A2Bd|edBd edBA|G2Bd eaaf|gedB A3B||

